briefcase-arrow-left-right.svg

<svg fill="currentColor" viewBox="0 0 24 24"><path d="M10 2h4a2 2 0 0 1 2 2v2h4a2 2 0 0 1 2 2v5.53A5.97 5.97 0 0 0 18 12a6.005 6.005 0 0 0-5.2 9H4a2 2 0 0 1-2-2V8c0-1.11.89-2 2-2h4V4c0-1.11.89-2 2-2m4 4V4h-4v2zm5 12.5V17h-4v-2h4v-1.5l3 2.5zm-2 .5h4v2h-4v1.5L14 20l3-2.5z"/></svg>

<svg  viewBox="0 0 24 24" fill="currentColor"><path  d="M10 2H14C15.11 2 16 2.9 16 4V6H20C21.11 6 22 6.9 22 8V13.53C20.94 12.58 19.54 12 18 12C14.69 12 12 14.69 12 18C12 19.09 12.29 20.12 12.8 21H4C2.89 21 2 20.1 2 19V8C2 6.89 2.89 6 4 6H8V4C8 2.89 8.89 2 10 2M14 6V4H10V6H14M19 18.5V17H15V15H19V13.5L22 16L19 18.5M17 19H21V21H17V22.5L14 20L17 17.5V19Z"/></svg>
